packages/core/src/svgs/tokens/mono/LOC.svg

<svg width="24" height="24" viewBox="0 0 24 24" fill="none" xmlns="http://www.w3.org/2000/svg">
<path d="M13.7059 9.92334C14.7353 9.92334 15.353 10.7175 15.5294 11.1175H14.7058C14.3882 10.7057 13.9412 10.6174 13.7 10.6292C12.5059 10.6822 12.2941 11.7528 12.3647 12.2822C12.1216 12.0006 11.9105 11.6928 11.7354 11.3645C11.7941 11.1293 12.4058 9.92334 13.7 9.92334H13.7059Z" fill="white"/>
<path d="M13.7645 13.3648C14.3469 13.3648 14.6469 13.0117 14.7234 12.8529H15.5292C15.3469 13.3823 14.5939 14 13.8234 14.0705C13.3601 14.1073 12.8981 13.9871 12.5116 13.7294C11.8903 13.2544 11.3871 12.6424 11.0409 11.9411C10.494 10.9117 9.86454 10.6176 9.37042 10.6176C8.41747 10.6176 7.94101 11.4764 7.98806 11.9411C7.98806 13.0765 8.92924 13.3648 9.45867 13.3648C10.494 13.3 10.7527 12.2294 10.6822 11.8176L11.2411 12.7117C11.1001 13.0983 10.8466 13.4339 10.5132 13.6751C10.1798 13.9162 9.78177 14.052 9.37042 14.0648C8.59983 14.0589 7.29395 13.4706 7.29395 11.9411C7.29395 10.6883 8.35277 9.9353 9.37042 9.9353C10.4587 9.9353 11.2175 10.7588 11.5762 11.4764C11.8645 12.0529 12.3704 12.6352 12.5881 12.8529C12.7351 13.0353 13.1764 13.3648 13.7645 13.3648Z" fill="white"/>
<path d="M21.4117 12C21.0352 4.02941 14.6176 2.01176 11.4116 2V4.94117C16.9235 5.12941 18.4352 9.79407 18.4705 12H21.4117Z" fill="white"/>
<path d="M21.4117 12C21.0352 19.9705 14.6176 21.9882 11.4116 22V19.0587C16.9235 18.8706 18.4352 14.2058 18.4705 12H21.4117Z" fill="white"/>
<path d="M2.58838 11.9647C2.58838 5.41166 8.75896 3.11167 11.4118 3.17637V4.94107C8.98249 4.90578 4.35308 7.35284 4.35308 11.9647C4.35308 17.5292 9.20601 19.0352 11.4118 19.0587V20.8234C8.21778 20.8352 2.58838 18.3528 2.58838 11.9647Z" fill="white"/>
</svg>

<svg xmlns="http://www.w3.org/2000/svg" width="24" height="24" fill="none" viewBox="0 0 24 24">
    <path fill="#fff" d="M13.706 9.923c1.03 0 1.647.794 1.823 1.194h-.823a1.23 1.23 0 0 0-1.006-.488c-1.194.053-1.406 1.124-1.335 1.653a5 5 0 0 1-.63-.918c.06-.235.67-1.44 1.965-1.44z"/>
    <path fill="#fff" d="M13.765 13.365c.582 0 .882-.353.958-.512h.806c-.182.53-.935 1.147-1.706 1.217a2.07 2.07 0 0 1-1.311-.34 5.1 5.1 0 0 1-1.471-1.789c-.547-1.03-1.176-1.323-1.67-1.323-.954 0-1.43.858-1.383 1.323 0 1.135.941 1.424 1.47 1.424 1.036-.065 1.295-1.136 1.224-1.547l.56.894a2.06 2.06 0 0 1-1.872 1.353c-.77-.006-2.076-.594-2.076-2.124 0-1.253 1.059-2.006 2.076-2.006 1.089 0 1.848.824 2.206 1.541.288.577.794 1.16 1.012 1.377.147.182.588.512 1.177.512M21.412 12c-.377-7.97-6.794-9.988-10-10v2.941c5.512.188 7.023 4.853 7.059 7.059z"/>
    <path fill="#fff" d="M21.412 12c-.377 7.97-6.794 9.988-10 10v-2.941c5.512-.188 7.023-4.853 7.059-7.059zm-18.824-.035c0-6.553 6.171-8.853 8.824-8.789v1.765c-2.43-.035-7.059 2.412-7.059 7.024 0 5.564 4.853 7.07 7.059 7.094v1.764c-3.194.012-8.824-2.47-8.824-8.858"/>
</svg>
